third_party/noto/noto_2/emoji_u1f6f0.svg

<svg enable-background="new 0 0 128 128" viewBox="0 0 128 128" xmlns="http://www.w3.org/2000/svg"><path d="m50.31 94.65-16.81-16.81c-1.39-1.39-0.14-3.03 1.01-3.53l9.85-5.52 15.16 15.16-5.71 9.56c-0.52 1.15-2.13 2.52-3.5 1.14z" fill="#616161"/><rect transform="matrix(.7071 -.7071 .7071 .7071 -26.418 64.114)" x="60.74" y="39.3" width="6.88" height="49.28" fill="#616161"/><g opacity=".2"><path d="m49.19 45.5 33.44 33.44-3.45 3.45-33.44-33.44 3.45-3.45m0-1.41-4.86 4.86 34.85 34.85 4.86-4.86-34.85-34.85z" fill="#eee"/></g><g fill="#90A4AE"><polygon points="94.6 47.81 98.9 48.84 104.78 26.28 100.48 25.25"/><polygon points="80.28 33.48 79.25 29.18 101.81 23.31 102.84 27.61"/></g><g opacity=".2"><g fill="#424242"><path d="m101.2 26.45 2.35 0.56-5.37 20.62-2.35-0.56 5.37-20.62m-0.72-1.2-5.88 22.56 4.3 1.03 5.88-22.56-4.3-1.03z"/><path d="m101.07 24.53 0.56 2.35-20.62 5.37-0.56-2.35 20.62-5.37m0.74-1.22-22.56 5.88 1.03 4.3 22.56-5.88-1.03-4.3z"/></g></g><rect transform="matrix(-.7071 -.7071 .7071 -.7071 108.96 136.2)" x="78.01" y="38.56" width="9.36" height="13.94" fill="#424242"/><linearGradient id="a" x1="89.984" x2="44.117" y1="90.321" y2="42.16" gradientTransform="matrix(-1 0 0 1 128.84 0)" gradientUnits="userSpaceOnUse"><stop stop-color="#90A4AE" offset=".0016526"/><stop stop-color="#A0B1BA" offset=".217"/><stop stop-color="#C2CDD3" offset=".7241"/><stop stop-color="#CFD8DC" offset="1"/></linearGradient><path d="m40.61 71.93 15.35 15.35c1.17 1.17 3.07 1.17 4.24 0l28.18-28.18c1.17-1.17 1.17-3.07 0-4.24l-15.36-15.34c-1.17-1.17-3.07-1.17-4.24 0l-28.17 28.17c-1.18 1.17-1.18 3.07 0 4.24z" fill="url(#a)"/><path d="m98.24 122.68-31.2-31.2c-1.17-1.17-1.17-3.07 0-4.24l20.2-20.2c1.17-1.17 3.07-1.17 4.24 0l31.2 31.2c1.17 1.17 1.17 3.07 0 4.24l-20.2 20.2c-1.16 1.17-3.06 1.17-4.24 0z" fill="#0277BD"/><g fill="#81D4FA"><rect transform="matrix(-.7071 -.7071 .7071 -.7071 101.84 245.86)" x="99.37" y="84.56" width="4.93" height="34.56"/><rect transform="matrix(-.7071 -.7071 .7071 -.7071 87.892 212.19)" x="85.43" y="70.61" width="4.93" height="34.56"/></g><path d="m36.51 60.95-31.2-31.2c-1.17-1.17-1.17-3.07 0-4.24l20.2-20.2c1.17-1.17 3.07-1.17 4.24 0l31.2 31.2c1.17 1.17 1.17 3.07 0 4.24l-20.2 20.2c-1.16 1.17-3.06 1.17-4.24 0z" fill="#0277BD"/><g fill="#81D4FA"><rect transform="matrix(-.7071 -.7071 .7071 -.7071 40.108 96.828)" x="37.64" y="22.83" width="4.93" height="34.56"/><rect transform="matrix(-.7071 -.7071 .7071 -.7071 26.163 63.163)" x="23.7" y="8.88" width="4.93" height="34.56"/></g><path d="m101.11 48.54c1 1 0.88 2.69-0.29 3.49-6.22 4.23-13.81 1.87-20.02-4.34-6.2-6.2-8.91-14.12-4.77-20.41 0.78-1.19 2.49-1.31 3.5-0.31l21.58 21.57z" fill="#CFD8DC"/><path d="m98.24 122.68-31.2-31.2c-1.17-1.17-1.17-3.07 0-4.24l20.2-20.2c1.17-1.17 3.07-1.17 4.24 0l31.2 31.2c1.17 1.17 1.17 3.07 0 4.24l-20.2 20.2c-1.16 1.17-3.06 1.17-4.24 0z" fill="#0277BD"/><g fill="#03A9F4"><rect transform="matrix(-.7071 -.7071 .7071 -.7071 101.84 245.86)" x="99.37" y="84.56" width="4.93" height="34.56"/><rect transform="matrix(-.7071 -.7071 .7071 -.7071 87.892 212.19)" x="85.43" y="70.61" width="4.93" height="34.56"/></g><path d="m36.51 60.95-31.2-31.2c-1.17-1.17-1.17-3.07 0-4.24l20.2-20.2c1.17-1.17 3.07-1.17 4.24 0l31.2 31.2c1.17 1.17 1.17 3.07 0 4.24l-20.2 20.2c-1.16 1.17-3.06 1.17-4.24 0z" fill="#0277BD"/><g fill="#03A9F4"><rect transform="matrix(-.7071 -.7071 .7071 -.7071 40.108 96.828)" x="37.64" y="22.83" width="4.93" height="34.56"/><rect transform="matrix(-.7071 -.7071 .7071 -.7071 26.163 63.163)" x="23.7" y="8.88" width="4.93" height="34.56"/></g><g opacity=".2"><path d="m89.36 69.17 31.2 31.2-20.2 20.2-31.2-31.2 20.2-20.2m0-3c-0.77 0-1.54 0.29-2.12 0.88l-20.2 20.2c-1.17 1.17-1.17 3.07 0 4.24l31.2 31.2c0.59 0.59 1.35 0.88 2.12 0.88s1.54-0.29 2.12-0.88l20.2-20.2c1.17-1.17 1.17-3.07 0-4.24l-31.2-31.2c-0.58-0.59-1.35-0.88-2.12-0.88z" fill="#424242"/></g><g opacity=".2"><path d="m27.63 7.44 31.2 31.2-20.2 20.2-31.2-31.2 20.2-20.2m0-3c-0.77 0-1.54 0.29-2.12 0.88l-20.2 20.2c-1.17 1.17-1.17 3.07 0 4.24l31.2 31.2c0.59 0.59 1.35 0.88 2.12 0.88s1.54-0.29 2.12-0.88l20.2-20.2c1.17-1.17 1.17-3.07 0-4.24l-31.2-31.2c-0.58-0.59-1.35-0.88-2.12-0.88z" fill="#424242"/></g><g opacity=".2"><path d="m70.9 41.2c0.38 0 0.75 0.15 1.02 0.42l14.73 14.73c0.56 0.56 0.56 1.47 0 2.03l-27.56 27.56c-0.26 0.26-0.62 0.41-1 0.41-0.13 0-0.27-0.02-0.4-0.05-0.17-0.05-0.35-0.07-0.52-0.07-0.69 0-1.35 0.36-1.72 0.97l-3.38 5.66c-0.04 0.07-0.08 0.15-0.12 0.23-0.07 0.16-0.21 0.33-0.33 0.43l-16.7-16.7c0.08-0.11 0.23-0.24 0.37-0.3l0.18-0.09 5.67-3.18c0.88-0.5 1.26-1.58 0.87-2.51-0.22-0.54-0.1-1.16 0.31-1.57l27.56-27.56c0.28-0.26 0.64-0.41 1.02-0.41m0-2c-0.88 0-1.76 0.34-2.43 1.01l-27.55 27.55c-1.01 1.01-1.26 2.5-0.74 3.75l-5.67 3.18c-1.15 0.5-2.4 2.14-1.01 3.53l16.81 16.81c0.41 0.41 0.84 0.58 1.26 0.58 0.98 0 1.87-0.91 2.22-1.72l3.38-5.66c0.3 0.08 0.61 0.12 0.92 0.12 0.87 0 1.74-0.33 2.41-0.99l27.56-27.56c1.34-1.34 1.34-3.52 0-4.86l-14.73-14.74c-0.67-0.67-1.55-1-2.43-1z" fill="#424242"/></g><g opacity=".2"><path d="m77.9 28.3c0.05 0 0.15 0.01 0.23 0.09l21.57 21.57c0.1 0.1 0.1 0.21 0.09 0.26-0.01 0.11-0.07 0.15-0.09 0.16-1.75 1.19-3.66 1.79-5.7 1.79-3.79 0-7.98-2.09-11.78-5.89-4.75-4.75-8.43-11.95-4.51-17.89 0.04-0.06 0.1-0.09 0.19-0.09m0-2c-0.72 0-1.43 0.33-1.86 0.99-4.14 6.28-1.43 14.21 4.77 20.41 4.06 4.06 8.72 6.48 13.19 6.48 2.36 0 4.68-0.67 6.83-2.14 1.17-0.8 1.29-2.49 0.29-3.49l-21.58-21.57c-0.45-0.46-1.05-0.68-1.64-0.68z" fill="#424242"/></g><circle cx="103.29" cy="25.17" r="4.58" fill="#616161"/><g opacity=".2"><path d="m103.29 21.59c0.96 0 1.86 0.37 2.53 1.05 0.68 0.68 1.05 1.58 1.05 2.53s-0.37 1.86-1.05 2.53c-0.68 0.68-1.58 1.05-2.53 1.05-0.96 0-1.86-0.37-2.53-1.05-0.68-0.68-1.05-1.58-1.05-2.53s0.37-1.86 1.05-2.53c0.68-0.68 1.58-1.05 2.53-1.05m0-1c-1.17 0-2.35 0.45-3.24 1.34-1.79 1.79-1.79 4.69 0 6.48 0.9 0.9 2.07 1.34 3.24 1.34s2.35-0.45 3.24-1.34c1.79-1.79 1.79-4.69 0-6.48-0.89-0.9-2.06-1.34-3.24-1.34z" fill="#eee"/></g></svg>

<svg width="128" height="128" style="enable-background:new 0 0 128 128;" xmlns="http://www.w3.org/2000/svg" xmlns:xlink="http://www.w3.org/1999/xlink">
  <g>
    <path d="M50.31,94.65L33.5,77.84c-1.39-1.39-0.14-3.03,1.01-3.53l9.85-5.52l15.16,15.16l-5.71,9.56 C53.29,94.66,51.68,96.03,50.31,94.65z" style="fill:#616161;"/>
    <rect height="49.28" style="fill:#616161;" transform="matrix(0.7071 -0.7071 0.7071 0.7071 -26.4182 64.1135)" width="6.88" x="60.74" y="39.3"/>
    <g style="opacity:0.2;">
      <path d="M49.19,45.5l33.44,33.44l-3.45,3.45L45.74,48.95L49.19,45.5 M49.19,44.09l-4.86,4.86L79.18,83.8 l4.86-4.86L49.19,44.09L49.19,44.09z" style="fill:#EEEEEE;"/>
    </g>
    <g>
      <polygon points="94.6,47.81 98.9,48.84 104.78,26.28 100.48,25.25 " style="fill:#90A4AE;"/>
      <polygon points="80.28,33.48 79.25,29.18 101.81,23.31 102.84,27.61 " style="fill:#90A4AE;"/>
    </g>
    <g style="opacity:0.2;">
      <g>
        <path d="M101.2,26.45l2.35,0.56l-5.37,20.62l-2.35-0.56L101.2,26.45 M100.48,25.25L94.6,47.81l4.3,1.03 l5.88-22.56L100.48,25.25L100.48,25.25z" style="fill:#424242;"/>
        <path d="M101.07,24.53l0.56,2.35l-20.62,5.37l-0.56-2.35L101.07,24.53 M101.81,23.31l-22.56,5.88 l1.03,4.3l22.56-5.88L101.81,23.31L101.81,23.31z" style="fill:#424242;"/>
      </g>
    </g>
    <rect height="13.94" style="fill:#424242;" transform="matrix(-0.7071 -0.7071 0.7071 -0.7071 108.9613 136.1976)" width="9.36" x="78.01" y="38.56"/>
    <linearGradient id="SVGID_1_" gradientTransform="matrix(-1 0 0 1 128.835 0)" gradientUnits="userSpaceOnUse" x1="89.9845" x2="44.1174" y1="90.321" y2="42.1605">
      <stop offset="1.652644e-03" style="stop-color:#90A4AE"/>
      <stop offset="0.217" style="stop-color:#A0B1BA"/>
      <stop offset="0.7241" style="stop-color:#C2CDD3"/>
      <stop offset="1" style="stop-color:#CFD8DC"/>
    </linearGradient>
    <path d="M40.61,71.93l15.35,15.35c1.17,1.17,3.07,1.17,4.24,0l28.18-28.18 c1.17-1.17,1.17-3.07,0-4.24L73.02,39.52c-1.17-1.17-3.07-1.17-4.24,0L40.61,67.69C39.43,68.86,39.43,70.76,40.61,71.93z" style="fill:url(#SVGID_1_);"/>
    <g>
      <path d="M98.24,122.68l-31.2-31.2c-1.17-1.17-1.17-3.07,0-4.24l20.2-20.2c1.17-1.17,3.07-1.17,4.24,0 l31.2,31.2c1.17,1.17,1.17,3.07,0,4.24l-20.2,20.2C101.32,123.85,99.42,123.85,98.24,122.68z" style="fill:#0277BD;"/>
      <g>
        <rect height="34.56" style="fill:#81D4FA;" transform="matrix(-0.7071 -0.7071 0.7071 -0.7071 101.837 245.8564)" width="4.93" x="99.37" y="84.56"/>
        <rect height="34.56" style="fill:#81D4FA;" transform="matrix(-0.7071 -0.7071 0.7071 -0.7071 87.8924 212.1909)" width="4.93" x="85.43" y="70.61"/>
      </g>
    </g>
    <g>
      <path d="M36.51,60.95l-31.2-31.2c-1.17-1.17-1.17-3.07,0-4.24l20.2-20.2c1.17-1.17,3.07-1.17,4.24,0 l31.2,31.2c1.17,1.17,1.17,3.07,0,4.24l-20.2,20.2C39.59,62.12,37.69,62.12,36.51,60.95z" style="fill:#0277BD;"/>
      <g>
        <rect height="34.56" style="fill:#81D4FA;" transform="matrix(-0.7071 -0.7071 0.7071 -0.7071 40.1076 96.8284)" width="4.93" x="37.64" y="22.83"/>
        <rect height="34.56" style="fill:#81D4FA;" transform="matrix(-0.7071 -0.7071 0.7071 -0.7071 26.163 63.163)" width="4.93" x="23.7" y="8.88"/>
      </g>
    </g>
    <path d="M101.11,48.54c1,1,0.88,2.69-0.29,3.49c-6.22,4.23-13.81,1.87-20.02-4.34 c-6.2-6.2-8.91-14.12-4.77-20.41c0.78-1.19,2.49-1.31,3.5-0.31L101.11,48.54z" style="fill:#CFD8DC;"/>
    <path d="M98.24,122.68l-31.2-31.2c-1.17-1.17-1.17-3.07,0-4.24l20.2-20.2c1.17-1.17,3.07-1.17,4.24,0 l31.2,31.2c1.17,1.17,1.17,3.07,0,4.24l-20.2,20.2C101.32,123.85,99.42,123.85,98.24,122.68z" style="fill:#0277BD;"/>
    <g>
      <rect height="34.56" style="fill:#03A9F4;" transform="matrix(-0.7071 -0.7071 0.7071 -0.7071 101.837 245.8564)" width="4.93" x="99.37" y="84.56"/>
      <rect height="34.56" style="fill:#03A9F4;" transform="matrix(-0.7071 -0.7071 0.7071 -0.7071 87.8924 212.1909)" width="4.93" x="85.43" y="70.61"/>
    </g>
    <path d="M36.51,60.95l-31.2-31.2c-1.17-1.17-1.17-3.07,0-4.24l20.2-20.2c1.17-1.17,3.07-1.17,4.24,0 l31.2,31.2c1.17,1.17,1.17,3.07,0,4.24l-20.2,20.2C39.59,62.12,37.69,62.12,36.51,60.95z" style="fill:#0277BD;"/>
    <g>
      <rect height="34.56" style="fill:#03A9F4;" transform="matrix(-0.7071 -0.7071 0.7071 -0.7071 40.1076 96.8284)" width="4.93" x="37.64" y="22.83"/>
      <rect height="34.56" style="fill:#03A9F4;" transform="matrix(-0.7071 -0.7071 0.7071 -0.7071 26.163 63.163)" width="4.93" x="23.7" y="8.88"/>
    </g>
    <g style="opacity:0.2;">
      <path d="M89.36,69.17l31.2,31.2l-20.2,20.2l-31.2-31.2L89.36,69.17C89.36,69.17,89.36,69.17,89.36,69.17 M89.36,66.17c-0.77,0-1.54,0.29-2.12,0.88l-20.2,20.2c-1.17,1.17-1.17,3.07,0,4.24l31.2,31.2c0.59,0.59,1.35,0.88,2.12,0.88 c0.77,0,1.54-0.29,2.12-0.88l20.2-20.2c1.17-1.17,1.17-3.07,0-4.24l-31.2-31.2C90.9,66.46,90.13,66.17,89.36,66.17L89.36,66.17z" style="fill:#424242;"/>
    </g>
    <g style="opacity:0.2;">
      <path d="M27.63,7.44l31.2,31.2l-20.2,20.2l-31.2-31.2L27.63,7.44C27.63,7.44,27.63,7.44,27.63,7.44 M27.63,4.44c-0.77,0-1.54,0.29-2.12,0.88l-20.2,20.2c-1.17,1.17-1.17,3.07,0,4.24l31.2,31.2c0.59,0.59,1.35,0.88,2.12,0.88 c0.77,0,1.54-0.29,2.12-0.88l20.2-20.2c1.17-1.17,1.17-3.07,0-4.24l-31.2-31.2C29.17,4.73,28.4,4.44,27.63,4.44L27.63,4.44z" style="fill:#424242;"/>
    </g>
    <g style="opacity:0.2;">
      <path d="M70.9,41.2c0.38,0,0.75,0.15,1.02,0.42l14.73,14.73c0.56,0.56,0.56,1.47,0,2.03L59.09,85.94 c-0.26,0.26-0.62,0.41-1,0.41c-0.13,0-0.27-0.02-0.4-0.05c-0.17-0.05-0.35-0.07-0.52-0.07c-0.69,0-1.35,0.36-1.72,0.97l-3.38,5.66 c-0.04,0.07-0.08,0.15-0.12,0.23c-0.07,0.16-0.21,0.33-0.33,0.43l-16.7-16.7c0.08-0.11,0.23-0.24,0.37-0.3 c0.06-0.03,0.12-0.06,0.18-0.09l5.67-3.18c0.88-0.5,1.26-1.58,0.87-2.51c-0.22-0.54-0.1-1.16,0.31-1.57l27.56-27.56 C70.16,41.35,70.52,41.2,70.9,41.2 M70.9,39.2c-0.88,0-1.76,0.34-2.43,1.01L40.92,67.76c-1.01,1.01-1.26,2.5-0.74,3.75l-5.67,3.18 c-1.15,0.5-2.4,2.14-1.01,3.53l16.81,16.81c0.41,0.41,0.84,0.58,1.26,0.58c0.98,0,1.87-0.91,2.22-1.72l3.38-5.66 c0.3,0.08,0.61,0.12,0.92,0.12c0.87,0,1.74-0.33,2.41-0.99L88.06,59.8c1.34-1.34,1.34-3.52,0-4.86L73.33,40.2 C72.66,39.53,71.78,39.2,70.9,39.2L70.9,39.2z" style="fill:#424242;"/>
    </g>
    <g style="opacity:0.2;">
      <path d="M77.9,28.3c0.05,0,0.15,0.01,0.23,0.09L99.7,49.96c0.1,0.1,0.1,0.21,0.09,0.26 c-0.01,0.11-0.07,0.15-0.09,0.16c-1.75,1.19-3.66,1.79-5.7,1.79c-3.79,0-7.98-2.09-11.78-5.89c-4.75-4.75-8.43-11.95-4.51-17.89 C77.75,28.33,77.81,28.3,77.9,28.3 M77.9,26.3c-0.72,0-1.43,0.33-1.86,0.99c-4.14,6.28-1.43,14.21,4.77,20.41 c4.06,4.06,8.72,6.48,13.19,6.48c2.36,0,4.68-0.67,6.83-2.14c1.17-0.8,1.29-2.49,0.29-3.49L79.54,26.98 C79.09,26.52,78.49,26.3,77.9,26.3L77.9,26.3z" style="fill:#424242;"/>
    </g>
    <ellipse cx="103.29" cy="25.17" rx="4.58" ry="4.58" style="fill:#616161;" transform="matrix(0.7071 -0.7071 0.7071 0.7071 12.4547 80.4119)"/>
    <g style="opacity:0.2;">
      <path d="M103.29,21.59c0.96,0,1.86,0.37,2.53,1.05c0.68,0.68,1.05,1.58,1.05,2.53s-0.37,1.86-1.05,2.53 c-0.68,0.68-1.58,1.05-2.53,1.05c-0.96,0-1.86-0.37-2.53-1.05c-0.68-0.68-1.05-1.58-1.05-2.53s0.37-1.86,1.05-2.53 C101.44,21.96,102.34,21.59,103.29,21.59 M103.29,20.59c-1.17,0-2.35,0.45-3.24,1.34c-1.79,1.79-1.79,4.69,0,6.48 c0.9,0.9,2.07,1.34,3.24,1.34c1.17,0,2.35-0.45,3.24-1.34c1.79-1.79,1.79-4.69,0-6.48C105.64,21.03,104.47,20.59,103.29,20.59 L103.29,20.59z" style="fill:#EEEEEE;"/>
    </g>
  </g>
</svg>
